packages/foundations/assets/icons/functional/images/file/upload_28.svg

<svg width="28" height="28" viewBox="0 0 28 28" fill="none" xmlns="http://www.w3.org/2000/svg">
<g clip-path="url(#clip0_185_1008)">
<path fill-rule="evenodd" clip-rule="evenodd" d="M3.5 18.3748C3.5 17.8827 3.8829 17.4999 4.37509 17.4999C4.86728 17.4999 5.25009 17.8827 5.25009 18.3749V23.6249C5.25009 24.117 5.6329 24.4999 6.12509 24.4999H21.8749C22.3671 24.4999 22.7499 24.117 22.7499 23.6249L22.7501 18.3748C22.7499 17.8827 23.1327 17.4999 23.625 17.4998C24.117 17.4999 24.5 17.8827 24.5 18.3748V23.6249C24.5 25.074 23.3241 26.2498 21.8749 26.2498H6.12509C4.67591 26.2498 3.5 25.074 3.5 23.6249V18.3748ZM8.12114 7.27347C7.95708 7.43753 7.87509 7.65628 7.87509 7.87503C7.87509 8.31253 8.17583 8.75003 8.75009 8.75003C8.96884 8.75003 9.18759 8.66796 9.37895 8.5039L13.125 4.73055V18.3749C13.125 18.867 13.5078 19.2499 14 19.2499C14.4922 19.2499 14.875 18.867 14.875 18.3749V4.73055L18.621 8.5039C18.8124 8.66796 19.0312 8.75003 19.2499 8.75003C19.7695 8.75003 20.1249 8.36722 20.1249 7.87503C20.1249 7.65628 20.0428 7.43753 19.8789 7.24608L14.6289 1.99617C14.4375 1.83211 14.2188 1.75012 14 1.75012C13.7812 1.75012 13.5625 1.83211 13.3984 1.99617L8.12114 7.27347Z" fill="#1A1C1F"/>
</g>
<defs>
<clipPath id="clip0_185_1008">
<rect width="28" height="28" fill="white"/>
</clipPath>
</defs>
</svg>

<svg xmlns="http://www.w3.org/2000/svg" width="28" height="28" fill="none"><g clip-path="url(#a)"><path fill="#1A1C1F" fill-rule="evenodd" d="M3.5 18.375c0-.492.383-.875.875-.875s.875.383.875.875v5.25c0 .492.383.875.875.875h15.75a.864.864 0 0 0 .875-.875v-5.25c0-.492.383-.875.875-.875s.875.383.875.875v5.25a2.626 2.626 0 0 1-2.625 2.625H6.125A2.626 2.626 0 0 1 3.5 23.625zM8.121 7.273a.85.85 0 0 0-.246.602c0 .438.3.875.875.875a.96.96 0 0 0 .629-.246l3.746-3.773v13.644c0 .492.383.875.875.875a.864.864 0 0 0 .875-.875V4.73l3.746 3.773c.191.164.41.246.629.246.52 0 .875-.383.875-.875a.96.96 0 0 0-.246-.629l-5.25-5.25A.96.96 0 0 0 14 1.75a.85.85 0 0 0-.602.246z" clip-rule="evenodd"/></g><defs><clipPath id="a"><path fill="#fff" d="M0 0h28v28H0z"/></clipPath></defs></svg>
